src/assets/img/providers/zeusplay-g.svg

<svg width="132" height="22" viewBox="0 0 132 22" fill="none" xmlns="http://www.w3.org/2000/svg">
<g clip-path="url(#clip0_4426_7966)">
<path fill-rule="evenodd" clip-rule="evenodd" d="M12.4703 0.407615C12.2988 0.426675 12.1558 0.455263 12.1558 0.474322C12.1558 0.47891 12.1205 0.735342 12.0636 1.14789L12.0636 1.14809L12.0635 1.14834C12.0023 1.59259 11.9161 2.21775 11.8223 2.90435C11.7631 3.33732 11.707 3.74585 11.6582 4.10067L11.6582 4.10068L11.6582 4.1007L11.6582 4.1008L11.6582 4.101C11.5578 4.83149 11.4887 5.33419 11.4887 5.35343C11.4887 5.37249 12.6037 5.39155 13.9664 5.39155C15.3291 5.39155 16.4441 5.41061 16.4441 5.4392C16.4441 5.46778 15.1671 7.04015 13.6043 8.94606C12.0415 10.8424 10.6883 12.5006 10.612 12.634C10.5263 12.7674 10.4405 13.0533 10.4024 13.282L10.3452 13.6822L16.5108 13.6632L22.6859 13.6346L22.7336 13.1867L22.7907 12.7293L20.1511 12.7102L17.5114 12.6816L20.5799 9.04135L23.6389 5.40108L24.0677 2.86623L24.5061 0.340909L18.6359 0.359968C15.4149 0.359968 12.6323 0.388556 12.4703 0.407615ZM59.6318 0.0550238C56.8969 0.445734 54.8957 1.82751 53.7998 4.08601C53.2375 5.26766 52.9993 6.21109 52.9993 7.3451C52.9993 8.5744 53.228 9.21288 53.9618 9.97524C54.6288 10.6804 55.1148 10.9282 56.6396 11.357C58.4692 11.8621 58.9457 12.2719 58.1833 12.6626C57.8879 12.815 57.6687 12.8341 56.2774 12.7864C55.2101 12.7579 54.4096 12.6816 53.7998 12.5482C53.3042 12.4339 52.8849 12.3481 52.8754 12.3481C52.8563 12.3481 52.4656 13.5202 52.4656 13.606C52.4656 13.6441 55.1434 13.6822 58.4216 13.6822H64.368L64.4919 13.2725C64.5681 13.0152 64.6158 12.2909 64.6158 11.2522C64.6158 9.6703 64.6062 9.62265 64.3489 9.09853C64.206 8.80311 63.8915 8.37429 63.6533 8.15511C63.1292 7.6691 61.8903 7.06874 60.9945 6.85909C59.6699 6.55415 59.4889 6.48744 59.3078 6.23968C59.06 5.91567 59.203 5.55355 59.6223 5.40108C60.0988 5.23908 61.5187 5.27719 62.9195 5.49637C63.6628 5.62026 64.2346 5.6679 64.2822 5.62026C64.4156 5.47731 65.7212 0.884091 65.6449 0.807855C65.5306 0.712559 64.2632 0.369497 63.3293 0.197966C62.3382 0.0169055 60.4418 -0.0593303 59.6318 0.0550238ZM23.9724 13.5583C23.9724 13.3773 25.7925 0.598208 25.8402 0.445737C25.8783 0.340912 26.8027 0.321852 31.6913 0.359971C34.8837 0.37903 37.5138 0.417147 37.5424 0.445737C37.5615 0.464795 37.3995 1.61787 37.1803 3.00917L36.7896 5.53449L34.1023 5.56308L31.4245 5.58214L31.3673 5.86803C31.353 5.94903 31.3316 6.05147 31.3101 6.15391C31.2887 6.25635 31.2672 6.3588 31.253 6.4398L31.1958 6.72568L33.7592 6.74474L36.3226 6.77333L36.0082 9.06041C35.8462 10.3183 35.7032 11.357 35.6937 11.3666C35.6937 11.3856 34.5406 11.3951 33.1303 11.3951H30.5764L30.5096 11.8335C30.4992 11.9145 30.4872 11.9873 30.4765 12.0528L30.4764 12.0531L30.4764 12.0533L30.4764 12.0534L30.4764 12.0534C30.446 12.2382 30.4252 12.3648 30.4746 12.4515C30.5823 12.6404 31.0234 12.6391 32.4263 12.6353H32.4264H32.4264C32.6488 12.6347 32.8952 12.634 33.1684 12.634H35.8843L35.8271 13.0342C35.7985 13.2629 35.7604 13.5012 35.7318 13.5583C35.7032 13.6536 34.4453 13.6822 29.8331 13.6822C25.2112 13.6822 23.9724 13.6536 23.9724 13.5583ZM38.8003 0.445734C38.7146 0.664912 37.0278 13.0056 37.0278 13.3582V13.6822H43.9749H50.9219L51.0172 13.2725C51.0743 13.0533 51.4841 10.2135 51.932 6.96392C52.3799 3.71435 52.7706 0.89362 52.8087 0.693501L52.8659 0.340909L51.303 0.350439C50.4549 0.359968 49.0446 0.398086 48.1869 0.426675L46.6145 0.483851L45.7855 6.43026L45.7233 6.87825L45.7233 6.87831C45.0351 11.8399 44.9159 12.6991 44.5289 12.8443C44.4478 12.8747 44.3551 12.8738 44.2428 12.8727C44.221 12.8724 44.1984 12.8722 44.175 12.8722C43.851 12.8722 43.7271 12.8246 43.5937 12.634C43.4174 12.4021 43.4308 12.3056 44.1788 6.91227L44.2417 6.45885C44.6896 3.19976 45.0422 0.50291 45.0136 0.483851C44.985 0.455263 43.5841 0.407615 41.9069 0.369497C39.3149 0.321849 38.8384 0.33138 38.8003 0.445734ZM70.505 13.463C70.5336 13.3487 70.9529 10.3374 71.4389 6.78285L72.3347 0.312312L76.7659 0.369489C81.5783 0.426666 81.9785 0.474314 83.0173 0.979377C84.4467 1.67503 85.0947 2.98058 85.0756 5.14377C85.0661 6.2492 84.7802 8.5744 84.5325 9.54641C84.1322 11.0902 83.1507 12.4053 81.9309 13.0437L81.8797 13.0705C81.6276 13.2025 81.4299 13.306 81.2234 13.3872C80.4727 13.6823 79.606 13.6823 75.5883 13.6822L75.3555 13.6822H70.4574L70.505 13.463ZM78.9958 7.24027C79.1673 6.11578 79.1197 5.77272 78.7957 5.60119C78.7004 5.54401 78.424 5.47731 78.1763 5.43919L77.7284 5.37248L77.6712 5.68696C77.4425 6.9925 77.1852 9.03181 77.2519 9.06993C77.3567 9.12711 77.9666 9.03181 78.3192 8.8984C78.6909 8.75546 78.8243 8.44098 78.9958 7.24027ZM87.2293 0.407617C86.9529 0.436206 86.8577 0.493382 86.8195 0.655384C86.7528 0.960328 85.0566 13.3201 85.0566 13.5202C85.0566 13.6727 85.3996 13.6822 90.6218 13.6822H96.187L96.2442 13.463C96.2728 13.3487 96.3014 13.1105 96.3014 12.9389V12.634H93.7761H91.2412L91.2984 12.3195C91.346 12.0622 92.9661 0.436206 92.9661 0.369499C92.9661 0.331381 87.62 0.369499 87.2293 0.407617ZM98.0167 13.5965C98.0167 13.5202 102.505 1.07468 102.686 0.645849L102.781 0.4362H106.955H111.129L111.815 6.84003C112.197 10.366 112.502 13.3487 112.502 13.463V13.6822H105.259C101.276 13.6822 98.0167 13.6441 98.0167 13.5965ZM106.45 10.1087L106.508 7.91687C106.536 6.70662 106.555 5.70602 106.536 5.69649C106.527 5.67743 106.384 6.07767 106.222 6.60179C106.128 6.91675 105.978 7.40305 105.827 7.89027L105.826 7.89495L105.825 7.89802C105.73 8.20429 105.635 8.51056 105.555 8.77452C105.354 9.45112 105.212 10.0515 105.25 10.0896C105.297 10.1277 105.583 10.1563 105.888 10.1372L106.45 10.1087ZM114.932 0.550554C115.017 0.807851 117.476 12.1194 117.485 12.3004C117.485 12.4053 117.457 12.7579 117.409 13.0914L117.333 13.6822L120.468 13.6632L123.603 13.6346L123.708 12.8722C123.813 12.148 123.956 11.8526 126.786 6.32544C128.416 3.14258 129.75 0.512437 129.75 0.483847C129.75 0.455259 128.349 0.44573 126.634 0.455259L123.527 0.483847L122.65 2.94246C122.164 4.29565 121.745 5.42013 121.726 5.43919C121.707 5.46778 121.564 4.41954 121.421 3.12352C121.278 1.82751 121.135 0.693497 121.107 0.598201C121.069 0.44573 120.84 0.4362 117.981 0.4362C115.551 0.4362 114.903 0.464789 114.932 0.550554ZM131.607 14.1438H0.392822V14.9295H131.607V14.1438ZM9.55949 21.6081H21.869L22.3273 18.4653L10.0178 18.6617L9.55949 21.6081ZM23.1785 21.6081L23.7023 18.5307L35.4881 18.1379L34.9642 21.6081H23.1785ZM37.0595 18.0724L50.6131 17.745C50.6131 17.745 48.8452 21.9355 43.4762 21.9355C37.7143 21.9355 37.0595 18.0724 37.0595 18.0724ZM64.2321 17.4176L52.119 17.745L51.1369 20.9534C51.1369 20.9534 53.8214 22.001 57.1607 22.001C63.0535 22.001 64.2321 17.4176 64.2321 17.4176ZM69.6012 21.6081L70.3214 17.2867L81.3869 17.0248C81.3869 17.0248 80.2738 17.8105 78.7678 17.8105H76.1488L75.5595 21.6081H69.6012ZM84.8571 16.9593L84.0714 21.6081H95.2024L95.9226 16.6974L84.8571 16.9593ZM98.0178 16.6319L96.1845 21.6081H102.339L103.321 18.7926H105.94L106.137 21.6081H112.554L112.03 16.3045L98.0178 16.6319ZM117.137 16.3045L116.286 21.6081H122.571L123.357 16.0426L117.137 16.3045Z" fill="#00AB55"/>
</g>
<defs>
<clipPath id="clip0_4426_7966">
<rect width="131.214" height="22" fill="white" transform="translate(0.392822 0.000976562)"/>
</clipPath>
</defs>
</svg>

<svg xmlns="http://www.w3.org/2000/svg" width="132" height="22" fill="none"><g clip-path="url(#a)"><path fill="#00AB55" fill-rule="evenodd" d="M12.47.408c-.171.019-.314.047-.314.066l-.092.674-.242 1.756-.164 1.197c-.1.73-.17 1.233-.17 1.252 0 .02 1.116.039 2.478.039 1.363 0 2.478.019 2.478.047 0 .029-1.277 1.601-2.84 3.507-1.563 1.896-2.916 3.555-2.992 3.688-.086.133-.171.42-.21.648l-.057.4 6.166-.019 6.175-.028.048-.448.057-.458-2.64-.019-2.64-.028 3.069-3.64 3.059-3.64.429-2.536.438-2.525-5.87.019c-3.221 0-6.004.029-6.166.048ZM59.632.055c-2.735.39-4.736 1.773-5.832 4.031-.563 1.182-.8 2.125-.8 3.26 0 1.228.228 1.867.962 2.63.667.704 1.153.952 2.678 1.381 1.83.505 2.306.915 1.543 1.306-.295.152-.514.171-1.906.123-1.067-.028-1.867-.104-2.477-.238-.496-.114-.915-.2-.925-.2-.019 0-.41 1.172-.41 1.258 0 .038 2.678.076 5.957.076h5.946l.124-.41c.076-.257.124-.981.124-2.02 0-1.582-.01-1.63-.267-2.153a3.778 3.778 0 0 0-.696-.944C63.13 7.67 61.89 7.07 60.995 6.86c-1.325-.305-1.506-.372-1.687-.62-.248-.323-.105-.685.314-.838.477-.162 1.897-.124 3.297.095.744.124 1.316.172 1.363.124.134-.143 1.44-4.736 1.363-4.812-.114-.095-1.382-.439-2.316-.61-.99-.181-2.887-.257-3.697-.143Zm-35.66 13.503c0-.18 1.82-12.96 1.868-13.112.038-.105.963-.124 5.851-.086 3.193.019 5.823.057 5.851.086.02.019-.142 1.172-.362 2.563l-.39 2.525-2.688.03-2.677.018-.058.286a9.896 9.896 0 0 1-.057.286c-.021.102-.043.205-.057.286l-.057.286 2.563.019 2.564.028-.315 2.287a85.912 85.912 0 0 1-.314 2.307c0 .019-1.153.028-2.564.028h-2.554l-.066.439c-.01.08-.023.153-.034.219-.03.185-.05.312-.001.398.107.19.548.188 1.951.184l.742-.001h2.716l-.057.4c-.029.229-.067.467-.095.524-.029.096-1.287.124-5.899.124-4.622 0-5.86-.028-5.86-.124ZM38.8.446c-.085.219-1.772 12.56-1.772 12.912v.324h13.894l.095-.41c.057-.219.467-3.059.915-6.308.448-3.25.839-6.07.877-6.27l.057-.353-1.563.01c-.848.009-2.258.047-3.116.076l-1.572.057-.83 5.946-.062.448c-.688 4.962-.807 5.821-1.194 5.966a.803.803 0 0 1-.286.029h-.068c-.324 0-.448-.048-.581-.239-.177-.232-.163-.328.585-5.722l.063-.453c.448-3.26.8-5.956.772-5.975-.029-.029-1.43-.076-3.107-.115C39.315.322 38.838.331 38.8.446Zm31.705 13.017c.029-.114.448-3.126.934-6.68l.896-6.47 4.43.056c4.813.058 5.213.105 6.252.61 1.43.696 2.078 2.002 2.059 4.165-.01 1.105-.296 3.43-.543 4.402-.4 1.544-1.382 2.86-2.602 3.498l-.051.026c-.252.133-.45.236-.657.317-.75.295-1.617.295-5.635.295h-5.131l.048-.219Zm8.49-6.223c.172-1.124.125-1.467-.2-1.639-.095-.057-.371-.124-.619-.162l-.448-.067-.057.315c-.229 1.305-.486 3.345-.42 3.383.106.057.716-.038 1.068-.172.372-.143.505-.457.677-1.658ZM87.23.408c-.276.028-.371.085-.41.247-.066.305-1.762 12.665-1.762 12.865 0 .153.343.162 5.565.162h5.565l.057-.219c.029-.114.057-.352.057-.524v-.305H91.241l.057-.315A2332.74 2332.74 0 0 0 92.966.37c0-.038-5.346 0-5.737.039Zm10.788 13.189c0-.077 4.488-12.522 4.669-12.951l.095-.21h8.348l.686 6.404c.382 3.526.687 6.509.687 6.623v.22h-7.243c-3.983 0-7.242-.039-7.242-.086Zm8.433-3.488.058-2.192c.028-1.21.047-2.211.028-2.22-.009-.02-.152.38-.314.905-.094.315-.244.801-.395 1.288l-.001.005-.001.003c-.095.306-.19.613-.27.877-.201.676-.343 1.277-.305 1.315.047.038.333.066.638.047l.562-.028ZM114.932.55c.085.257 2.544 11.568 2.553 11.75 0 .104-.028.457-.076.79l-.076.591 3.135-.019 3.135-.028.105-.763c.105-.724.248-1.02 3.078-6.547 1.63-3.182 2.964-5.813 2.964-5.841 0-.029-1.401-.038-3.116-.029l-3.107.029-.877 2.458c-.486 1.354-.905 2.478-.924 2.497-.019.029-.162-1.02-.305-2.315-.143-1.296-.286-2.43-.314-2.526-.038-.152-.267-.162-3.126-.162-2.43 0-3.078.029-3.049.115Zm16.675 13.593H.393v.786h131.214v-.786ZM9.559 21.608h12.31l.458-3.143-12.31.197-.458 2.946Zm13.62 0 .523-3.077 11.786-.393-.524 3.47H23.18Zm13.88-3.536 13.554-.327s-1.768 4.19-7.137 4.19c-5.762 0-6.416-3.863-6.416-3.863Zm27.173-.654-12.113.327-.982 3.208s2.684 1.048 6.024 1.048c5.892 0 7.071-4.583 7.071-4.583Zm5.37 4.19.72-4.321 11.065-.262s-1.113.786-2.62.786H76.15l-.59 3.797h-5.958Zm15.255-4.649-.786 4.65h11.131l.72-4.912-11.065.262Zm13.16-.327-1.832 4.976h6.154l.982-2.815h2.619l.197 2.815h6.417l-.524-5.303-14.012.327Zm19.12-.328-.851 5.304h6.285l.786-5.565-6.22.262Z" clip-rule="evenodd"/></g><defs><clipPath id="a"><path fill="#fff" d="M.393.001h131.214v22H.393z"/></clipPath></defs></svg>
